X:54
T:Worn Petticoat, The
C:Traditional
M:6/8
R:Slide
K:Ador
e2d | c3 BcB | A2G E2D | EFG A2B | c2d e2d |
c2c BcB | A2G E2D | EFG A2G |[1 A3 :|[2 A6 |]
|: Bcd e2f | g2g e2d | e2a a2b | a2g e2d |
[1 Bcd e2f | g2g e2d | e2a a2b | a3 a3 :|
[2 c2c BcB | A2G E2D | EFG A2G | A3 |]

